topics/special-relativity/Latex/images/svg/circular_waves_from_stationary_source.svg

<?xml version="1.0" encoding="UTF-8"?>
<svg xmlns="http://www.w3.org/2000/svg" xmlns:xlink="http://www.w3.org/1999/xlink" width="453.942pt" height="453.942pt" viewBox="0 0 453.942 453.942" version="1.1">
<defs>
<clipPath id="clip1">
  <path d="M 0 0 L 453.941406 0 L 453.941406 453.941406 L 0 453.941406 Z M 0 0 "/>
</clipPath>
</defs>
<g id="surface1">
<g clip-path="url(#clip1)" clip-rule="nonzero">
<path style=" stroke:none;fill-rule:nonzero;fill:rgb(100%,89.411926%,78.431702%);fill-opacity:1;" d="M 0 453.941406 L 453.941406 453.941406 L 453.941406 0 L 0 0 Z M 0 453.941406 "/>
<path style="fill:none;stroke-width:0.3985;stroke-linecap:butt;stroke-linejoin:miter;stroke:rgb(100%,0%,0%);stroke-opacity:1;stroke-miterlimit:10;" d="M 226.775094 -0.00165625 C 226.775094 125.244438 125.243844 226.775688 0.00165625 226.775688 C -125.244438 226.775688 -226.775688 125.244438 -226.775688 -0.00165625 C -226.775688 -125.243844 -125.244438 -226.775094 0.00165625 -226.775094 C 125.243844 -226.775094 226.775094 -125.243844 226.775094 -0.00165625 Z M 226.775094 -0.00165625 " transform="matrix(1,0,0,-1,226.971,226.971)"/>
</g>
<path style="fill:none;stroke-width:0.3985;stroke-linecap:butt;stroke-linejoin:miter;stroke:rgb(100%,0%,0%);stroke-opacity:1;stroke-miterlimit:10;" d="M 198.427438 -0.00165625 C 198.427438 109.588188 109.5915 198.428031 0.00165625 198.428031 C -109.588188 198.428031 -198.428031 109.588188 -198.428031 -0.00165625 C -198.428031 -109.5915 -109.588188 -198.427438 0.00165625 -198.427438 C 109.5915 -198.427438 198.427438 -109.5915 198.427438 -0.00165625 Z M 198.427438 -0.00165625 " transform="matrix(1,0,0,-1,226.971,226.971)"/>
<path style="fill:none;stroke-width:0.3985;stroke-linecap:butt;stroke-linejoin:miter;stroke:rgb(100%,0%,0%);stroke-opacity:1;stroke-miterlimit:10;" d="M 170.079781 -0.00165625 C 170.079781 93.935844 93.93525 170.080375 0.00165625 170.080375 C -93.935844 170.080375 -170.080375 93.935844 -170.080375 -0.00165625 C -170.080375 -93.93525 -93.935844 -170.079781 0.00165625 -170.079781 C 93.93525 -170.079781 170.079781 -93.93525 170.079781 -0.00165625 Z M 170.079781 -0.00165625 " transform="matrix(1,0,0,-1,226.971,226.971)"/>
<path style="fill:none;stroke-width:0.3985;stroke-linecap:butt;stroke-linejoin:miter;stroke:rgb(100%,0%,0%);stroke-opacity:1;stroke-miterlimit:10;" d="M 141.732125 -0.00165625 C 141.732125 78.279594 78.279 141.732719 0.00165625 141.732719 C -78.279594 141.732719 -141.732719 78.279594 -141.732719 -0.00165625 C -141.732719 -78.279 -78.279594 -141.732125 0.00165625 -141.732125 C 78.279 -141.732125 141.732125 -78.279 141.732125 -0.00165625 Z M 141.732125 -0.00165625 " transform="matrix(1,0,0,-1,226.971,226.971)"/>
<path style="fill:none;stroke-width:0.3985;stroke-linecap:butt;stroke-linejoin:miter;stroke:rgb(100%,0%,0%);stroke-opacity:1;stroke-miterlimit:10;" d="M 113.388375 -0.00165625 C 113.388375 62.623344 62.62275 113.388969 0.00165625 113.388969 C -62.623344 113.388969 -113.388969 62.623344 -113.388969 -0.00165625 C -113.388969 -62.62275 -62.623344 -113.388375 0.00165625 -113.388375 C 62.62275 -113.388375 113.388375 -62.62275 113.388375 -0.00165625 Z M 113.388375 -0.00165625 " transform="matrix(1,0,0,-1,226.971,226.971)"/>
<path style="fill:none;stroke-width:0.3985;stroke-linecap:butt;stroke-linejoin:miter;stroke:rgb(100%,0%,0%);stroke-opacity:1;stroke-miterlimit:10;" d="M 85.040719 -0.00165625 C 85.040719 46.967094 46.9665 85.041313 0.00165625 85.041313 C -46.967094 85.041313 -85.041313 46.967094 -85.041313 -0.00165625 C -85.041313 -46.9665 -46.967094 -85.040719 0.00165625 -85.040719 C 46.9665 -85.040719 85.040719 -46.9665 85.040719 -0.00165625 Z M 85.040719 -0.00165625 " transform="matrix(1,0,0,-1,226.971,226.971)"/>
<path style="fill:none;stroke-width:0.3985;stroke-linecap:butt;stroke-linejoin:miter;stroke:rgb(100%,0%,0%);stroke-opacity:1;stroke-miterlimit:10;" d="M 56.693062 -0.00165625 C 56.693062 31.310844 31.31025 56.693656 0.00165625 56.693656 C -31.310844 56.693656 -56.693656 31.310844 -56.693656 -0.00165625 C -56.693656 -31.31025 -31.310844 -56.693062 0.00165625 -56.693062 C 31.31025 -56.693062 56.693062 -31.31025 56.693062 -0.00165625 Z M 56.693062 -0.00165625 " transform="matrix(1,0,0,-1,226.971,226.971)"/>
<path style="fill:none;stroke-width:0.3985;stroke-linecap:butt;stroke-linejoin:miter;stroke:rgb(100%,0%,0%);stroke-opacity:1;stroke-miterlimit:10;" d="M 28.345406 -0.00165625 C 28.345406 15.654594 15.654 28.346 0.00165625 28.346 C -15.654594 28.346 -28.346 15.654594 -28.346 -0.00165625 C -28.346 -15.654 -15.654594 -28.345406 0.00165625 -28.345406 C 15.654 -28.345406 28.345406 -15.654 28.345406 -0.00165625 Z M 28.345406 -0.00165625 " transform="matrix(1,0,0,-1,226.971,226.971)"/>
<path style="fill-rule:nonzero;fill:rgb(100%,0%,0%);fill-opacity:1;stroke-width:0.3985;stroke-linecap:butt;stroke-linejoin:miter;stroke:rgb(0%,0%,0%);stroke-opacity:1;stroke-miterlimit:10;" d="M 6.974312 -0.00165625 C 6.974312 3.849906 3.853219 6.974906 0.00165625 6.974906 C -3.849906 6.974906 -6.974906 3.849906 -6.974906 -0.00165625 C -6.974906 -3.853219 -3.849906 -6.974312 0.00165625 -6.974312 C 3.853219 -6.974312 6.974312 -3.853219 6.974312 -0.00165625 Z M 6.974312 -0.00165625 " transform="matrix(1,0,0,-1,226.971,226.971)"/>
</g>
</svg>

<svg data-optimized="true" xmlns="http://www.w3.org/2000/svg" width="605.256" height="605.256" viewBox="0 0 453.942 453.942"><defs><clipPath id="a"><path d="M0 0h453.941v453.941H0Zm0 0"/></clipPath></defs><g clip-path="url(#a)"><path d="M0 453.941h453.941V0H0Zm0 0" style="stroke:none;fill-rule:nonzero;fill:#ffe4c8;fill-opacity:1"/><path d="M226.775-.002c0 125.246-101.531 226.778-226.773 226.778-125.246 0-226.778-101.532-226.778-226.778 0-125.242 101.532-226.773 226.778-226.773 125.242 0 226.773 101.531 226.773 226.773Zm0 0" style="fill:none;stroke-width:.3985;stroke-linecap:butt;stroke-linejoin:miter;stroke:red;stroke-opacity:1;stroke-miterlimit:10" transform="matrix(1 0 0 -1 226.971 226.971)"/></g><path d="M198.427-.002c0 109.59-88.835 198.43-198.425 198.43s-198.43-88.84-198.43-198.43 88.84-198.425 198.43-198.425S198.427-109.591 198.427-.002Zm0 0" style="fill:none;stroke-width:.3985;stroke-linecap:butt;stroke-linejoin:miter;stroke:red;stroke-opacity:1;stroke-miterlimit:10" transform="matrix(1 0 0 -1 226.971 226.971)"/><path d="M170.08-.002C170.08 93.936 93.935 170.08.002 170.08c-93.938 0-170.082-76.144-170.082-170.082 0-93.933 76.144-170.078 170.082-170.078 93.933 0 170.078 76.145 170.078 170.078Zm0 0" style="fill:none;stroke-width:.3985;stroke-linecap:butt;stroke-linejoin:miter;stroke:red;stroke-opacity:1;stroke-miterlimit:10" transform="matrix(1 0 0 -1 226.971 226.971)"/><path d="M141.732-.002c0 78.282-63.453 141.735-141.73 141.735-78.282 0-141.735-63.453-141.735-141.735 0-78.277 63.453-141.73 141.735-141.73 78.277 0 141.73 63.453 141.73 141.73Zm0 0" style="fill:none;stroke-width:.3985;stroke-linecap:butt;stroke-linejoin:miter;stroke:red;stroke-opacity:1;stroke-miterlimit:10" transform="matrix(1 0 0 -1 226.971 226.971)"/><path d="M113.388-.002c0 62.625-50.765 113.391-113.386 113.391-62.625 0-113.391-50.766-113.391-113.39 0-62.622 50.766-113.387 113.39-113.387 62.622 0 113.387 50.765 113.387 113.386Zm0 0" style="fill:none;stroke-width:.3985;stroke-linecap:butt;stroke-linejoin:miter;stroke:red;stroke-opacity:1;stroke-miterlimit:10" transform="matrix(1 0 0 -1 226.971 226.971)"/><path d="M85.04-.002c0 46.97-38.073 85.043-85.038 85.043-46.97 0-85.043-38.074-85.043-85.043 0-46.964 38.074-85.039 85.043-85.039C46.967-85.04 85.04-46.967 85.04 0Zm0 0" style="fill:none;stroke-width:.3985;stroke-linecap:butt;stroke-linejoin:miter;stroke:red;stroke-opacity:1;stroke-miterlimit:10" transform="matrix(1 0 0 -1 226.971 226.971)"/><path d="M56.693-.002c0 31.313-25.383 56.696-56.691 56.696-31.313 0-56.696-25.383-56.696-56.696 0-31.308 25.383-56.691 56.696-56.691 31.308 0 56.691 25.383 56.691 56.691Zm0 0" style="fill:none;stroke-width:.3985;stroke-linecap:butt;stroke-linejoin:miter;stroke:red;stroke-opacity:1;stroke-miterlimit:10" transform="matrix(1 0 0 -1 226.971 226.971)"/><path d="M28.345-.002c0 15.657-12.691 28.348-28.343 28.348-15.657 0-28.348-12.691-28.348-28.348 0-15.652 12.691-28.343 28.348-28.343 15.652 0 28.343 12.691 28.343 28.343Zm0 0" style="fill:none;stroke-width:.3985;stroke-linecap:butt;stroke-linejoin:miter;stroke:red;stroke-opacity:1;stroke-miterlimit:10" transform="matrix(1 0 0 -1 226.971 226.971)"/><path d="M6.974-.002a6.975 6.975 0 1 1-13.95.003 6.975 6.975 0 0 1 13.95-.003Zm0 0" style="fill-rule:nonzero;fill:red;fill-opacity:1;stroke-width:.3985;stroke-linecap:butt;stroke-linejoin:miter;stroke:#000;stroke-opacity:1;stroke-miterlimit:10" transform="matrix(1 0 0 -1 226.971 226.971)"/></svg>
